material/.icons/material/video-image.svg

<svg xmlns="http://www.w3.org/2000/svg" viewBox="0 0 24 24"><path d="M17 10.5l4-4v11l-4-4V17a1 1 0 01-1 1H4a1 1 0 01-1-1V7a1 1 0 011-1h12a1 1 0 011 1v3.5m-6.09-.95L9.2 11.82l1.3 1.73-.73.54-2.04-2.73L5 15h10l-4.09-5.45z"/></svg>

<?xml version="1.0" encoding="UTF-8"?><!DOCTYPE svg PUBLIC "-//W3C//DTD SVG 1.1//EN" "http://www.w3.org/Graphics/SVG/1.1/DTD/svg11.dtd"><svg xmlns="http://www.w3.org/2000/svg" xmlns:xlink="http://www.w3.org/1999/xlink" version="1.1" id="mdi-video-image" width="24" height="24" viewBox="0 0 24 24"><path d="M17,10.5L21,6.5V17.5L17,13.5V17A1,1 0 0,1 16,18H4A1,1 0 0,1 3,17V7A1,1 0 0,1 4,6H16A1,1 0 0,1 17,7V10.5M10.91,9.55L9.2,11.82L10.5,13.55L9.77,14.09L7.73,11.36L5,15H15L10.91,9.55Z" /></svg>
